svgs/sharp-regular/head-side-heart.svg

<svg xmlns="http://www.w3.org/2000/svg" viewBox="0 0 512 512"><!--! Font Awesome Pro 6.6.0 by @fontawesome - https://fontawesome.com License - https://fontawesome.com/license (Commercial License) Copyright 2024 Fonticons, Inc. --><path d="M112 361.7l0 19.6 0 66.8 0 16 0 48-16 0-32 0 0-32 0-16 0-82.8c-41-41.9-64-98.3-64-157C0 100.6 100.2 0 224 0l32 0C357.8 0 441.1 79.2 447.6 179.4l56.3 63.4 8.1 9.1 0 12.2 0 24 0 16 0 32-16 0-16 0-16 0-16 0 0 48 0 16 0 16 0 32-32 0-16 0-32 0-48 0 0 16 0 16 0 16 0 16-32 0-16 0 0-48 0-16 0-48 48 0 80 0 0-64 0-48 48 0 16 0 0-17.9-52.3-58.8-11-12.3-1.1-16.5C394.8 107.4 332.3 48 256 48l-32 0C126.8 48 48 127 48 224.2c0 46.1 18.1 90.5 50.3 123.4l13.7 14zm0-174.5c0-32.7 26.5-59.2 59.2-59.2l2.4 0c15.9 0 31.2 6.2 42.7 17.2l7.7 7.4 7.7-7.4c11.5-11 26.8-17.2 42.7-17.2l2.4 0c32.7 0 59.2 26.5 59.2 59.2c0 16.1-6.6 31.5-18.2 42.7l-82.8 79.6L224 320.1l-11.1-10.7-82.8-79.6c-11.6-11.2-18.2-26.6-18.2-42.7z"/></svg>

<svg xmlns="http://www.w3.org/2000/svg" viewBox="0 0 512 512"><!--! Font Awesome Pro 6.5.2 by @fontawesome - https://fontawesome.com License - https://fontawesome.com/license (Commercial License) Copyright 2024 Fonticons, Inc. --><path d="M112 361.7v19.6V448v16 48H96 64V480 464 381.2c-41-41.9-64-98.3-64-157C0 100.6 100.2 0 224 0h32C357.8 0 441.1 79.2 447.6 179.4l56.3 63.4 8.1 9.1V264v24 16 32H496 480 464 448v48 16 16 32H416 400 368 320v16 16 16 16H288 272V464 448 400h48 80V336 288h48 16V270.1l-52.3-58.8-11-12.3-1.1-16.5C394.8 107.4 332.3 48 256 48H224C126.8 48 48 127 48 224.2c0 46.1 18.1 90.5 50.3 123.4l13.7 14zm0-174.5c0-32.7 26.5-59.2 59.2-59.2h2.4c15.9 0 31.2 6.2 42.7 17.2l7.7 7.4 7.7-7.4c11.5-11 26.8-17.2 42.7-17.2h2.4c32.7 0 59.2 26.5 59.2 59.2c0 16.1-6.6 31.5-18.2 42.7l-82.8 79.6L224 320.1l-11.1-10.7-82.8-79.6c-11.6-11.2-18.2-26.6-18.2-42.7z"/></svg>
